public/images/wallet/discount-solid-svgrepo-com-2.svg

<svg width="30" height="30" viewBox="0 0 30 30" fill="none" xmlns="http://www.w3.org/2000/svg">
<g id="discount-solid-svgrepo-com 2">
<path id="Vector" fill-rule="evenodd" clip-rule="evenodd" d="M12.324 3.22616C12.9315 2.66369 13.8384 1.875 15 1.875C16.1616 1.875 17.0685 2.66369 17.676 3.22616C17.8128 3.35281 17.9351 3.46945 18.051 3.57995C18.2376 3.75788 18.4076 3.92004 18.5945 4.08245C18.8787 4.3295 19.1049 4.4871 19.2965 4.57134C19.5177 4.65782 19.8095 4.71135 20.1922 4.7417C20.457 4.7627 20.7142 4.77017 20.9956 4.77836C21.1424 4.78262 21.2956 4.78708 21.4599 4.79374C22.2794 4.82696 23.4784 4.90261 24.2879 5.71209C25.0974 6.52156 25.173 7.72059 25.2063 8.54015C25.2129 8.70432 25.2174 8.85749 25.2216 9.00409C25.2299 9.28549 25.2372 9.54299 25.2583 9.80771C25.2886 10.1905 25.3421 10.4822 25.4286 10.7035C25.5129 10.8951 25.6705 11.1213 25.9175 11.4055C26.08 11.5924 26.242 11.7623 26.42 11.9489C26.5305 12.0648 26.6471 12.1872 26.7739 12.324C27.3363 12.9315 28.125 13.8384 28.125 15C28.125 16.1616 27.3363 17.0685 26.7739 17.676C26.6472 17.8128 26.5306 17.935 26.4202 18.0509C26.2423 18.2374 26.08 18.4076 25.9175 18.5945C25.6705 18.8787 25.5129 19.1049 25.4286 19.2965C25.3421 19.5177 25.2886 19.8095 25.2583 20.1922C25.2372 20.457 25.2299 20.7142 25.2216 20.9956C25.2174 21.1422 25.2129 21.2956 25.2063 21.4599C25.173 22.2794 25.0974 23.4784 24.2879 24.2879C23.4784 25.0974 22.2794 25.173 21.4599 25.2063C21.2956 25.2129 21.1425 25.2174 20.9959 25.2216C20.7145 25.2299 20.457 25.2372 20.1922 25.2583C19.8095 25.2886 19.5177 25.3421 19.2965 25.4286C19.1049 25.5129 18.8787 25.6705 18.5945 25.9175C18.4076 26.08 18.2377 26.242 18.0511 26.4199C17.9352 26.5304 17.8128 26.6472 17.676 26.7739C17.0685 27.3363 16.1616 28.125 15 28.125C13.8384 28.125 12.9315 27.3363 12.324 26.7739C12.1872 26.6471 12.0648 26.5305 11.9489 26.42C11.7623 26.242 11.5924 26.08 11.4055 25.9175C11.1213 25.6705 10.8951 25.5129 10.7035 25.4286C10.4822 25.3421 10.1905 25.2886 9.80771 25.2583C9.54299 25.2372 9.28571 25.2299 9.00433 25.2216C8.85771 25.2174 8.70432 25.2129 8.54015 25.2063C7.72059 25.173 6.52156 25.0974 5.71209 24.2879C4.90261 23.4784 4.82696 22.2794 4.79374 21.4599C4.78708 21.2956 4.78262 21.1424 4.77836 20.9956C4.77017 20.7142 4.7627 20.457 4.7417 20.1922C4.71135 19.8095 4.65782 19.5177 4.57134 19.2965C4.4871 19.1049 4.3295 18.8787 4.08245 18.5945C3.92004 18.4076 3.758 18.2377 3.58007 18.0511C3.46962 17.9352 3.35275 17.8128 3.22616 17.676C2.66369 17.0685 1.875 16.1616 1.875 15C1.875 13.8384 2.66369 12.9315 3.22616 12.324C3.35285 12.1872 3.46952 12.0648 3.58007 11.9489C3.75797 11.7623 3.92005 11.5924 4.08245 11.4055C4.3295 11.1213 4.4871 10.8951 4.57134 10.7035C4.65782 10.4822 4.71135 10.1905 4.7417 9.80771C4.7627 9.54299 4.77017 9.28571 4.77836 9.00433C4.78262 8.85766 4.78708 8.70439 4.79374 8.54015C4.82696 7.72059 4.90261 6.52156 5.71209 5.71209C6.52156 4.90261 7.72059 4.82696 8.54015 4.79374C8.70439 4.78708 8.8576 4.78262 9.00426 4.77836C9.28565 4.77019 9.54299 4.7627 9.80771 4.7417C10.1905 4.71135 10.4822 4.65782 10.7035 4.57134C10.8951 4.4871 11.1213 4.3295 11.4055 4.08245C11.5924 3.92005 11.7623 3.758 11.9489 3.5801C12.0648 3.46955 12.1872 3.35285 12.324 3.22616ZM18.5625 11.8125C18.8731 11.3983 18.7892 10.8107 18.375 10.5C17.9608 10.1893 17.3731 10.2733 17.0625 10.6875L11.4375 18.1875C11.1268 18.6017 11.2108 19.1894 11.625 19.5C12.0392 19.8106 12.6269 19.7267 12.9375 19.3125L18.5625 11.8125ZM15.9375 17.8125C15.9375 16.777 16.777 15.9375 17.8125 15.9375C18.848 15.9375 19.6875 16.777 19.6875 17.8125C19.6875 18.848 18.848 19.6875 17.8125 19.6875C16.777 19.6875 15.9375 18.848 15.9375 17.8125ZM12.1875 10.3125C11.152 10.3125 10.3125 11.152 10.3125 12.1875C10.3125 13.223 11.152 14.0625 12.1875 14.0625C13.223 14.0625 14.0625 13.223 14.0625 12.1875C14.0625 11.152 13.223 10.3125 12.1875 10.3125Z" fill="#965EFB"/>
</g>
</svg>

<svg xmlns="http://www.w3.org/2000/svg" width="30" height="30" fill="none"><path fill="#965EFB" fill-rule="evenodd" d="M12.324 3.226c.607-.562 1.514-1.351 2.676-1.351 1.162 0 2.069.789 2.676 1.351.137.127.26.243.375.354.187.178.357.34.544.502.284.248.51.405.702.49.22.086.512.14.895.17.265.02.522.028.804.036l.464.016c.82.033 2.018.109 2.828.918.81.81.885 2.009.918 2.828.007.164.011.317.016.464.008.281.015.539.036.804.03.383.084.674.17.896.085.191.242.417.49.701.162.187.324.357.502.544.11.116.227.238.354.375.562.607 1.351 1.514 1.351 2.676 0 1.162-.789 2.069-1.351 2.676-.127.137-.243.259-.354.375-.178.186-.34.357-.503.544-.247.284-.404.51-.488.702-.087.22-.14.512-.17.895-.022.265-.03.522-.037.804l-.016.464c-.033.82-.109 2.018-.918 2.828-.81.81-2.009.885-2.828.918-.164.007-.318.011-.464.016-.281.008-.539.015-.804.036-.383.03-.674.084-.895.17-.192.085-.418.242-.703.49-.186.162-.356.324-.543.502-.116.11-.238.227-.375.354-.607.562-1.514 1.351-2.676 1.351-1.162 0-2.069-.789-2.676-1.351-.137-.127-.26-.244-.375-.354-.187-.178-.357-.34-.543-.503-.285-.247-.51-.404-.703-.488-.22-.087-.512-.14-.895-.17-.265-.022-.522-.03-.804-.037l-.464-.016c-.82-.033-2.018-.109-2.828-.918-.81-.81-.885-2.009-.918-2.828a39.51 39.51 0 0 1-.016-.464c-.008-.282-.015-.539-.036-.804-.03-.383-.084-.674-.17-.895-.085-.192-.242-.418-.49-.703-.162-.186-.324-.356-.502-.543-.11-.116-.227-.238-.354-.375-.562-.607-1.351-1.514-1.351-2.676 0-1.162.789-2.069 1.351-2.676.127-.137.244-.26.354-.375.178-.187.34-.357.502-.543.248-.285.405-.51.49-.703.086-.22.14-.512.17-.895.02-.265.028-.522.036-.804l.016-.464c.033-.82.109-2.018.918-2.828.81-.81 2.009-.885 2.828-.918.164-.007.318-.011.464-.016.282-.008.539-.015.804-.036.383-.03.674-.084.896-.17.191-.085.417-.242.701-.49.187-.162.357-.324.544-.502.116-.11.238-.227.375-.354Zm6.239 8.587a.938.938 0 0 0-1.5-1.126l-5.625 7.5a.937.937 0 1 0 1.5 1.125l5.624-7.5Zm-2.625 6a1.875 1.875 0 1 1 3.75 0 1.875 1.875 0 0 1-3.75 0Zm-3.75-7.5a1.875 1.875 0 1 0 0 3.75 1.875 1.875 0 0 0 0-3.75Z" clip-rule="evenodd"/></svg>
